X:1
T:GAVOTTE
T:GAVOTTE
T:Henry PURCELL
T:Oscar du Fortain
T:Oscar du Fortain
C:Henry PURCELL
Z:Oscar du Fortain
%%score 1 { ( 2 4 ) | 3 }
L:1/8
Q:1/4=92
M:4/4
K:G
V:1 treble nm="Flûte" snm="Fl."
V:2 treble nm="Piano" snm="Pia."
V:4 treble 
V:3 bass 
V:1
({BA)} (B2 d2) | (G2 AB) (A2 d2) |{cBc} B2{/A} !breath!G2(({BA)} B2 cB) | (A2 GF) (G3 A) | %4
{GFG} F2{/E} !breath!D2({BA} B2 d2) | (G2 AB) (A2 dc) |({Bc)} (B2 !breath!A2) (B2 c2) | %7
 (d2 cB) TA3 !tenuto!G | !breath!G4 (B2 cd) | !tenuto!e2{/e} d2 !tenuto!e2{/e} d2 | %10
 !tenuto!e2{/e} d2 !tenuto!e2{/e} d2 | !tenuto!e2 !tenuto!d2({cd)} c2 !tenuto!B2 | %12
({AB)} !breath!A4 (F2 GA) | !tenuto!B2{/B} A2 !tenuto!B2{/B} A2 | (!>!Bc).A.c (!>!Bc).A.c | %15
 (B^c).d.e{/e} Tc3 !tenuto!d | !breath!d4({BA)} (B2 d2) | (G2 AB) (A2 dc) | %18
({Bc)} B2{/A} !breath!G2({BA)} (B2 cB) | z8 | z8 | z8 | z8 | z8 | z8 | z8 | z8 | z8 | z8 | z8 | %30
 z8 | z8 | z8 | z8 | z8 | z8 | z8 | z8 | z8 | z8 | z8 | z8 |] %42
V:2
 ([DG]2 [DA]2) | ([EGB]2 [EG]2 [DA]4) | G4 G4 | A4 (B2 ^c2 | !breath![Fd]4) ([Gd]2 [Ad]2) | %5
 (BA G2 [DA]4) | (G2 !breath!F2) G4- | G2 (G4 F2 | [B,G]4) z4 | z G2 g2 G2 g- | g G2 g2 G2 g- | %11
 g G2 g2 G2 g | (G2 F2) z4 | z8 | z8 | z8 | z8 | z8 | z8 | z8 | z8 | z8 | z8 | z8 | z8 | z8 | z8 | %27
 z8 | z8 | z8 | z8 | z8 | z8 | z8 | z8 | z8 | z8 | z8 | z8 | z8 | z8 | z8 |] %42
V:3
 G,2 F,2 | E,4 F,4 | G,2 G,,2 G,4 | F,4 E,4 | D,4 G,2 F,2 | E,4 F,4 | G,2 D,2 G,,2 A,,2 | %7
 B,,2 C,2 D,2 D,2 | G,2 G,,2 G,2 A,B, | C2 B,2 C2 G,2 | C2 B,2 C2 G,2 | C2 B,2 A,2 G,2 | %12
 D4 (D,2 E,F,) | z8 | z8 | z8 | z8 | z8 | z8 | z8 | z8 | z8 | z8 | z8 | z8 | z8 | z8 | z8 | z8 | %29
 z8 | z8 | z8 | z8 | z8 | z8 | z8 | z8 | z8 | z8 | z8 | z8 | z8 |] %42
V:4
 x4 | x8 | D2 B,2 D2 E2- | E2 D2 G4 | x8 | x8 | D4 D4 | D2 E2 D2 C2 | x8 | x8 | x8 | x8 | x8 | x8 | %14
 x8 | x8 | x8 | x8 | x8 | x8 | x8 | x8 | x8 | x8 | x8 | x8 | x8 | x8 | x8 | x8 | x8 | x8 | x8 | %33
 x8 | x8 | x8 | x8 | x8 | x8 | x8 | x8 | x8 |] %42

